X:1
T:Farewell my love - Adieu m'amour I
T:Farewell my love - Adieu m'amour I
T:Alexander Agricola (1446-1506)
C:Alexander Agricola (1446-1506)
%%score [ 1 2 3 ]
L:1/8
Q:1/4=120
M:4/4
K:C
V:1 treble nm="Contra Tenor" snm="Ct"
V:2 treble-8 nm="Tenor" snm="T"
V:3 bass nm="Bass" snm="B"
V:1
 z4 z2 F2 | F4 F4 | E4 A4 | G4 G4 | c6 _BA | _B2 A2 FGA=B | c3 B A3 G/F/ | ED G2 F3 E/D/ | %8
w: Fare-|well my|love and|my de-|sire _ _|_ Of you _ I _|take _ _ _ _|_ _ _ _ _ _|
 C2 D4 ^C2 | D4 z2 A2 | A4 A4 | G4 c4 | B3 A G2 F2 | E4 z2 E2 | A6 GF | E4 z2 D2 | C2 D2 B,2 B,2 | %17
w: * * my|leave; If|I have|dis- *|pleased _ _ _|you, Fail-|ling your com-|mands, your|_ _ _ com-|
 A,4 z2 A,2 | C4 C3 D | E2 F2 G4 | z2 E2 F2 F2 | E6 DC | B,2 A,2 z2 A2 | A2 G2 c4 | B2 A4 G2 | %25
w: mands, Par-|don me _|_ _ _|hap- * pi-|ly _ _|_ _ I|set my heart|_ _ to|
 A2 GF E4 | F4 E2 E2 | D2 G4 F2 | G3 F/E/ D4 | C2 E2 D2 D2 | C3 D EF G2 | C2 F4 E2 | F4 z2 D2 | %33
w: serve _ _ you,|I set my|heart to _|serve _ _ _|you, I set my|heart _ _ _ _|_ to serve|you, A-|
 F4 z2 A,2 | C4 z2 C2 | F3 G A2 B2 | c3 B A2 G2- | GF FE/D/ E4 | D4 z2 D2 | F3 G A2 B2 | %40
w: las! A-|las! I|have _ tru- ly|was- * ted my|_ _ _ _ _ la-|bour, A-|las! _ _ _|
 c2 z B A2 G2 | F2 E3 D D2- | D2 C2 D3 E | FE G3 F ED | C2 DE FD E2- | ED D4 ^C2 | D8 |] %47
w: _ A- las! _|_ _ _ _|* * I have|tru- ly was- * * *|ted my _ _ _ _|_ _ la- *|bour.|
 !-(!A,2 !-)!c2 |] %48
w: |
V:2
 z4 z2 d2 | d4 d4 | c4 f4 | e3 d c2 B2 | A4 z2 A2 | d6 cB | A2 A2 FGAB | c3 B A3 G/F/ | %8
w: Fare-|well my|love and|my _ _ de-|sire of|you _ _|_ I take _ _ _|_ _ _ _ _|
 ED F2 E2 E2 | D4 z2 d2 | f4 f4 | e6 dc | d4 B4 | c3 B A2 G2 | F4 F4 | c4 z2 B2 | c2 d2 B2 B2 | %17
w: * * * * my|leave; If|I have|dis- * *|pleased you,|Fail- * * ling|your com-|mands, your|_ _ _ com-|
 A4 z4 | z2 A2 A4- | A4 G3 A | B2 c2 d4 | c6 BA | G2 A2 A4 | c3 B A2 e2- | ed c2 B4 | A4 z2 A2- | %26
w: mands,|Par- don|* me _|hap- pi- ly|I set my|heart to serve|you, _ _ to|_ _ _ serve|you, I|
 A2 d4 c2 | d2 cB A2 A2 | G3 A Bc d2 | G2 c4 B2 | c4 z2 B2 | A4 G4 | F4 z4 | z2 D2 FEFG | %34
w: * set my|heart _ _ _ to|serve _ _ _ _|you, to serve|you, to|serve _|you,|A- las! _ _ _|
 A2 F2 A4 | z2 d2 d2 d2 | e2 f4 e2- | ed d4 ^c2 | d4 z4 | z2 D2 F3 G | A2 z B c3 B | A2 G2 F2 ED | %42
w: _ A- las!|I have tru-|ly was- ted|_ _ my la-|bour|A- las! _|_ A- las! _|_ _ _ _ _|
 E4 DEFG | A2 _B3 A GF | E2 D4 C2 | DEFD E4 | D8 |] !-(!C2 !-)!f2 |] %48
w: * I _ _ _|_ have _ tru- ly|was- ted _|my _ _ _ la-|bour.||
V:3
 z4 z2 D,2 | D,4 D,4 | A,4 D,2 F,2 | C,8- | C,4 F,4 | _B,,2 D,3 E, F,2- | F,E, C,2 D,4 | C,4 D,4 | %8
w: Fare-|well my|love and _|my|* de-|sire Of _ you|_ _ _ _|I take|
 A,,8 | D,8 | z2 D,2 D,2 F,2 | C,2 C,4 B,,A,, | G,,4 z2 D,2 | C,2 A,,3 B,, C,2 | F,,2 F,4 E,D, | %15
w: my|leave;|If I have|dis- pleased * *|you, Fail-||ling your com- *|
 C,4 z2 G,2 | A,2 D,2 E,2 E,2 | F,6 E,D, | E,2 F,4 E,D, | C,2 D,2 E,4 | z2 C,2 B,,2 B,,2 | %21
w: mands, your|_ _ _ com-|mands, _ _|_ Par- * *|don _ me|hap- * pi-|
 C,2 A,,2 A,,B,,C,D, | E,2 F,2 D,4 | C,4 F,,2 A,,2 | G,,2 F,,2 G,,4 | D,4 C,4 | D,4 A,,4 | %27
w: ly I set _ my _|heart to serve|you, to _|_ _ serve|you, I|set my|
 B,,2 G,,2 D,4 | E,2 C,2 G,3 F, | E,D, C,2 G,4 | A,4 z2 E,2 | F,3 E,/D,/ C,4 | F,2 D,2 F,4 | %33
w: heart _ _|to _ serve _|_ _ _ _|you to|serve _ _ _|you, A- las!|
 D,2 F,3 E, F,G, | A,4 F,4 | D,3 E, F,2 G,2 | C,2 F,4 C,2 | D,4 A,,4 | z2 D,2 F,3 G, | %39
w: A- las! _ _ _|_ I|have _ tru- ly|was- ted my|la- bour,|A- las! _|
 A,2 A,2 D,2 D,2 | A,,4 z2 E,2 | F,2 C,2 D,2 _B,,2 | A,,4 z2 D,2- | D,C,_B,,A,, G,,4 | %44
w: _ A- las! A-|las! I|have _ tru- *|ly was-|* * * * ted|
 A,,2 _B,,4 A,,2 | _B,,4 A,,4 | D,8 |] !-(!F,,2 !-)!A,2 |] %48
w: my _ _|_ la-|bour.||

